X: 1
T: The Lady On The Island
R: reel
M: 4/4
L: 1/8
K: Dmaj
| BAFB AFEF | D2FA BAdB | BAFB ~A2AB | defd efdB |
BAFB AFEF | DAFA GBdB | BAFB AFAB | defd eABc ||
|:d2fd efge | afdf edBA |1 d2fd efge |
afdf e2 (3ABc :|2 defg ~a2ab | afdf edd2 ||


Tune 938	Setting 14128

